X:1172
L:1/8
M:6/8
K:G
|: D |"G" G2 D A2 D |"G" B2 d dcB |"D" c2 A F2 A |"G" B2 G E2 D |"G" G2 D A2 D |"G" B2 d dcB | 
"D" c2 A F2 A |"G" DFA G2 :: F |"Em" EFE EFG |"Em" BcB BAG |"Bm" F2 B, F2 B, |"Bm" A2 G FGF | 
"Em" EFE EFG |"Em" BcB BAG |"Bm" F2 B, F2 A |"Bm" AGF E2 :: D |"G" GAB G2 F |"C" ECC C2 B, | 
"Am" A,AA A2 G |"D" FEF DEF |"G" GDG ADA |"G" BGB dcA |"D" DFA ded |"D" cAF"G" G2 :|

